fa/trash-arrow-up.svg

<svg xmlns="http://www.w3.org/2000/svg" viewBox="0 0 448 512" height="1em" width="1em">
  <path d="M284.2 0c12.1 0 23.2 6.848 28.6 17.69L320 32h96c17.7 0 32 14.33 32 32s-14.3 32-32 32H32C14.33 96 0 81.67 0 64s14.33-32 32-32h96l7.2-14.31C140.6 6.848 151.7 0 163.8 0h120.4zM31.1 128H416l-21.2 338.1c-1.6 26.2-22.5 45.9-47.9 45.9H101.1c-25.35 0-46.33-19.7-47.91-45.9L31.1 128zM207 199l-80 80c-9.3 9.4-9.3 24.6 0 33.1 9.4 10.2 24.6 10.2 33.1 0l39-38.2V408c0 13.3 11.6 24 24 24 14.2 0 24.9-10.7 24.9-24V273.9l39 38.2c9.4 10.2 24.6 10.2 33.1 0 10.2-8.5 10.2-23.7 0-33.1l-80-80c-3.6-4.5-9.7-7.9-17-7.9-5.5 0-11.6 3.4-16.1 7.9z"/>
</svg>

<svg xmlns="http://www.w3.org/2000/svg" viewBox="0 0 448 512" height="1em" width="1em">
  <path d="M284.2 0C296.3 0 307.4 6.848 312.8 17.69L320 32H416C433.7 32 448 46.33 448 64C448 81.67 433.7 96 416 96H32C14.33 96 0 81.67 0 64C0 46.33 14.33 32 32 32H128L135.2 17.69C140.6 6.848 151.7 0 163.8 0H284.2zM31.1 128H416L394.8 466.1C393.2 492.3 372.3 512 346.9 512H101.1C75.75 512 54.77 492.3 53.19 466.1L31.1 128zM207 199L127 279C117.7 288.4 117.7 303.6 127 312.1C136.4 322.3 151.6 322.3 160.1 312.1L199.1 273.9V408C199.1 421.3 210.7 432 223.1 432C237.3 432 248 421.3 248 408V273.9L287 312.1C296.4 322.3 311.6 322.3 320.1 312.1C330.3 303.6 330.3 288.4 320.1 279L240.1 199C236.5 194.5 230.4 191.1 223.1 191.1C217.6 191.1 211.5 194.5 207 199V199z"/>
</svg>
